X:2
T:The banks of Lough Gowna
M:6/8
L:1/8
C:anon.
R:Double jig
O:Ireland
B:Francis O'Neill: "The Dance Music of Ireland" (1907) no. 264
Z:Transcribed by Frank Nordberg - http://www.musicaviva.com
K:Am
ABA AGE|EDE G3|ABA AGE|c2d ecA|ABA AGE|EDE G3|cde ged|cAA A3:|
||cde g2a|gea ged|cde geg| geg a2B|cde g2a|gea ged|cde fed|cAG A3:|
